source/svgs/bowtie/uE90E-synchronize.svg

<svg xmlns="http://www.w3.org/2000/svg" viewBox="0 0 448 448"><path d="M32 0h160v160h-32v-108.555c-71.262 26.482-120 95.655-120 172.555 0 67.22 36.65 129.08 95.65 161.443l-15.39 28.057c-69.244-37.982-112.26-110.595-112.26-189.5 0-47.668 15.22-92.864 44.02-130.703 19.474-25.59 44.662-46.59 73.065-61.297h-93.085v-32zm363.98 354.702c28.8-37.838 44.02-83.034 44.02-130.702 0-78.906-43.016-151.52-112.26-189.5l-15.39 28.057c59 32.36 95.65 94.223 95.65 161.443 0 76.9-48.738 146.073-120 172.556v-108.556h-32v160h160v-32h-93.088c28.404-14.708 53.593-35.706 73.07-61.298z"/></svg>

<svg xmlns="http://www.w3.org/2000/svg" viewBox="0 0 448 448"><path d="M32 0h160v160h-32V51.445C88.738 77.927 40 147.1 40 224c0 67.22 36.65 129.08 95.65 161.443L120.26 413.5C51.016 375.518 8 302.905 8 224c0-47.668 15.22-92.864 44.02-130.703C71.494 67.707 96.682 46.707 125.085 32H32V0zm363.98 354.702C424.78 316.864 440 271.668 440 224c0-78.906-43.016-151.52-112.26-189.5l-15.39 28.057C371.35 94.917 408 156.78 408 224c0 76.9-48.738 146.073-120 172.556V288h-32v160h160v-32h-93.088c28.404-14.708 53.593-35.706 73.07-61.298z"/></svg>
